X:103
T:Awake, My Heart, With Gladness
%%stretchlast false
M:3/4
L:1/4
K:C clef=C1
"^I"[CEcg] [CGce] "^I¹"[E,Ccg] | "^IV"[F,CAf]2 "^I"[CGe] | "^V"[G,B,Gd]3/2 [G,A,Gd]/ [G,B,Gd] | "^I"[C,EGc]2 [CEcg] | "^IV"[F,Fca]3/2 "^V"[G,Fcb]/ "^vi"[A,Ecc']/ [A,Adc']/ | "^III"[E,^Geb]3/2 "^♯iv"[E,^Fea]/ "^iii"[E,Geb] | "^vi"[A,Eca]3 | "^I"[CEcg] [CGce] "^I¹"[E,Ccg] | "^IV"[F,CAf]2 "^I"[CGe] | "^V"[G,B,Gd]3/2 [G,A,Gd]/ [G,B,Gd] | "^I"[C,EGc]2 [CEcg] | "^IV"[F,Fca]3/2 "^V"[G,Fcb]/ "^vi"[A,Ecc']/ [A,Adc']/ | "^III"[E,^Geb]3/2 "^♯iv"[E,^Fea]/ "^iii"[E,Geb] | "^vi"[A,Eca]3 | "^I"[CEGe] "^V¹"[B,DGg] "^vi"[A,CEc] | "^V"[G,DGB]3/2 "^i"[G,CGc]/ "^V"[G,B,Gd] | "^I"[C,EGc]3 | "^ii"[D,Adf] "^IV"[F,Aca] "^v"[G,G^Ad] | "^V/ii"[A,EA^c]3/2 "^ii"[A,DAd]/ "^VI"[A,^CAe] | "^V/V"[D,^FAd]2 "^V"[G,GBd] | "^I"[CGce]3/2 [CGcf]/ "^V¹"[B,Gdg] | "^II"[DAd^f]3/2 "^v"[DGdg]/ "^V/V"[D^Fda] | "^V"[G,GBg]2 "^I"[CEcg] | "^IV"[F,Fca]3/2 "^V"[G,Fcb]/ "^vi"[A,Ecc'] | "^V"[G,Gdb]3/2 [G,Gda]/ [G,Gdb] | "^I"[C,Gec']3 |]
